webroot/css/img/new-desgin/timer.svg

<svg width="20" height="21" viewBox="0 0 20 21" fill="none" xmlns="http://www.w3.org/2000/svg">
<g id="Frame" clip-path="url(#clip0_177_813)">
<g id="Group">
<path id="Vector" d="M13.5631 12.2659L10.7746 10.1745V5.91426C10.7746 5.4859 10.4283 5.13965 9.99995 5.13965C9.57159 5.13965 9.22534 5.4859 9.22534 5.91426V10.5618C9.22534 10.8058 9.33999 11.0359 9.53519 11.1815L12.6335 13.5053C12.7673 13.606 12.9301 13.6604 13.0975 13.6602C13.3338 13.6602 13.5662 13.5541 13.718 13.3496C13.9752 13.008 13.9055 12.5223 13.5631 12.2659Z" fill="url(#paint0_linear_177_813)"/>
<path id="Vector_2" d="M10 0.5C4.48566 0.5 0 4.98566 0 10.5C0 16.0143 4.48566 20.5 10 20.5C15.5143 20.5 20 16.0143 20 10.5C20 4.98566 15.5143 0.5 10 0.5ZM10 18.9508C5.34082 18.9508 1.54918 15.1592 1.54918 10.5C1.54918 5.84082 5.34082 2.04918 10 2.04918C14.66 2.04918 18.4508 5.84082 18.4508 10.5C18.4508 15.1592 14.6592 18.9508 10 18.9508Z" fill="url(#paint1_linear_177_813)"/>
</g>
</g>
<defs>
<linearGradient id="paint0_linear_177_813" x1="9.66068" y1="5.91797" x2="17.0019" y2="10.9506" gradientUnits="userSpaceOnUse">
<stop stop-color="#007BC4"/>
<stop offset="1" stop-color="#0B4C97"/>
</linearGradient>
<linearGradient id="paint1_linear_177_813" x1="1.87325" y1="2.32693" x2="19.8759" y2="24.951" gradientUnits="userSpaceOnUse">
<stop stop-color="#007BC4"/>
<stop offset="1" stop-color="#0B4C97"/>
</linearGradient>
<clipPath id="clip0_177_813">
<rect width="20" height="20" fill="white" transform="translate(0 0.5)"/>
</clipPath>
</defs>
</svg>

<svg width="20" height="21" fill="none" xmlns="http://www.w3.org/2000/svg"><g clip-path="url(#a)"><path d="m13.563 12.266-2.788-2.091v-4.26a.774.774 0 1 0-1.55 0v4.647c0 .244.115.474.31.62l3.098 2.323a.77.77 0 0 0 .465.155.773.773 0 0 0 .466-1.394Z" fill="url(#b)"/><path d="M10 .5C4.486.5 0 4.986 0 10.5s4.486 10 10 10 10-4.486 10-10-4.486-10-10-10Zm0 18.45c-4.66 0-8.45-3.79-8.45-8.45 0-4.66 3.79-8.45 8.45-8.45 4.66 0 8.45 3.79 8.45 8.45 0 4.66-3.79 8.45-8.45 8.45Z" fill="url(#c)"/></g><defs><linearGradient id="b" x1="9.661" y1="5.918" x2="17.002" y2="10.951" gradientUnits="userSpaceOnUse"><stop stop-color="#007BC4"/><stop offset="1" stop-color="#0B4C97"/></linearGradient><linearGradient id="c" x1="1.873" y1="2.327" x2="19.876" y2="24.951" gradientUnits="userSpaceOnUse"><stop stop-color="#007BC4"/><stop offset="1" stop-color="#0B4C97"/></linearGradient><clipPath id="a"><path fill="#fff" transform="translate(0 .5)" d="M0 0h20v20H0z"/></clipPath></defs></svg>
